src/images/crypto-icon-svg/steem.svg

<svg xmlns="http://www.w3.org/2000/svg" width="32" height="32" viewBox="0 0 32 32">
  <g fill="none" fill-rule="evenodd">
    <circle cx="16" cy="16" r="16" fill="#4BA2F2"/>
    <path fill="#FFF" fill-rule="nonzero" d="M9.86984444,8.22893617 C10.0860222,8.26553192 9.54811111,9.69829787 9.84831111,11.3357447 C10.1071333,12.7387234 13.3548667,18.1723404 13.2210222,20.0357447 C13.1171556,21.2059574 10.4504,23.9506383 10.1700444,23.7676596 C9.86308889,23.6829787 10.9798667,21.8178723 10.5656667,20.2638298 C10.0843333,18.4519149 7.22588889,13.7676596 7.22926667,11.7 C7.22926667,10.187234 9.67688889,8.13106383 9.86984444,8.22893617 Z M15.9789778,6.08978723 C16.2525778,6.13617021 15.5681556,7.96468085 15.9506889,10.0476596 C16.2804444,11.8395745 20.4237111,18.7676596 20.2522889,21.1429787 C20.1184444,22.6374468 16.7195556,26.1344681 16.3598222,25.9021277 C15.9705333,25.7957447 17.3938444,23.4170213 16.8660667,21.4353192 C16.2525778,19.1268085 12.6075333,13.1527659 12.6109111,10.5161702 C12.6109111,8.58468085 15.7332444,5.96510638 15.9789778,6.08978723 Z M22.2840222,8.22893617 C22.5002,8.26553192 21.9627111,9.69829787 22.2624889,11.3357447 C22.5217333,12.7387234 25.7690444,18.1723404 25.6356222,20.0357447 C25.5334444,21.2059574 22.8662667,23.9506383 22.5842222,23.7676596 C22.2776889,23.6829787 23.3940444,21.8178723 22.9802667,20.2638298 C22.4985111,18.4519149 19.6404889,13.7676596 19.6434444,11.7 C19.6434444,10.187234 22.0927556,8.13106383 22.2840222,8.22893617 Z"/>
  </g>
</svg>

<svg xmlns="http://www.w3.org/2000/svg" width="32" height="32"><g fill="none" fill-rule="evenodd"><circle cx="16" cy="16" r="16" fill="#4BA2F2"/><path fill="#FFF" fill-rule="nonzero" d="M9.87 8.229c.216.037-.322 1.47-.022 3.107.26 1.403 3.507 6.836 3.373 8.7-.104 1.17-2.77 3.915-3.051 3.732-.307-.085.81-1.95.396-3.504-.482-1.812-3.34-6.496-3.337-8.564 0-1.513 2.448-3.569 2.64-3.471zm6.109-2.14c.274.047-.41 1.876-.028 3.959.33 1.792 4.473 8.72 4.301 11.095-.134 1.494-3.532 4.991-3.892 4.76-.39-.107 1.034-2.486.506-4.468-.613-2.308-4.258-8.282-4.255-10.919 0-1.931 3.122-4.55 3.368-4.426zm6.305 2.14c.216.037-.321 1.47-.022 3.107.26 1.403 3.507 6.836 3.374 8.7-.103 1.17-2.77 3.915-3.052 3.732-.306-.085.81-1.95.396-3.504-.481-1.812-3.34-6.496-3.337-8.564 0-1.513 2.45-3.569 2.641-3.471z"/></g></svg>
